X:1
T:Sechs Lieder von Novalis, Op.4
T:Noch ein Bergmannslied
T:5. Noch ein Bergmannslied
T:Louise Reichardt
T:Novalis (Georg Friedrich Freiherr von Hardenberg)
T:Sechs Lieder von Novalis, Op.4
T:OpenScore (CC0) 
C:Louise Reichardt
Z:Novalis (Georg Friedrich Freiherr von Hardenberg)
Z:OpenScore (CC0)
%%score 1 { 2 | ( 3 4 ) }
L:1/8
Q:1/4=120
M:4/4
K:Eb
V:1 treble nm="Voice"
V:2 treble nm="Piano"
V:3 bass 
V:4 bass 
V:1
"^In a noble, lofty style""^Erhaben" E2 | G2 B2 e2 B2 | c4 B2 B2 | D2 E2 A2 G2 | F6 =B,2 | %5
w: 1. Der|ist der Herr der|Er- de, wer|ih- re Tie- fen|misst und|
w: 2. Wer|ih- rer Fel- sen|Glie- der ge-|hei- men Bau ver-|steht, und|
 C2 E2 G2 c2 | e4 =A3 A | _B3 B, (B,2 C) D | E6 |] %9
w: jeg- lich- er Be-|schwer- de in|ih- rem Schooss * ver-|gisst.|
w: un- ver- dros- sen|nie- der zu|ih- rer Werk- * statt|geht.|
V:2
 E2 | G2 B2 e2 [EGB]2 | [EAc]4 [EGB]2 [EB]2 | [B,D]2 [B,E]2 [DA]2 [EG]2 | [DF]6 =B,2 | %5
 C2 E2 G2 c2 | e4 [E_G=A]4 | [E=GB]4 [_A,B,D]4 | E6 |] %9
V:3
 [E,,E,]2 | [G,,G,]2 [B,,B,]2 [E,E]2 [E,,E,]2 | [A,,A,]4 [E,,E,]2 G,2 | A,2 G,2 F,2 E,2 | %4
 [B,,B,]6 =B,,2 | C,2 E,2 G,2 C2 | E4 _C4 | B,4 B,,4 | [E,,E,]6 |] %9
V:4
 x2 | x8 | x8 | x8 | x8 | x8 | x8 | x8 | [G,B,]6 |] %9

